X:1
T:Old Time Billy in the Lowground - G
S:Kelly Gilbert (1895-1991, northeastern Ky.), who had the tune 
S:Lewis Goins, a local fiddler and mentor.
M:C|
L:1/8
Q:"Quick"
K:G
(3DEF)|G2D2[B,4D4]|E2 DC B,[G,3D3]|G2AB cBAG|F2 AB A2(3DEF)||
e2f2|[M:C|]g2 eg f2d2| c2 Ac B[G,3G3]|g2 eg f2d2|f-a2b [A4a4]|

